db/projects/verge/asset-xvg-logo-full.svg

<?xml version="1.0" encoding="UTF-8" standalone="no"?>
<svg width="210px" height="36px" viewBox="0 0 210 36" version="1.1" xmlns="http://www.w3.org/2000/svg" xmlns:xlink="http://www.w3.org/1999/xlink">
    <!-- Generator: Sketch 44.1 (41455) - http://www.bohemiancoding.com/sketch -->
    <title>Group 2</title>
    <desc>Created with Sketch.</desc>
    <defs></defs>
    <g id="Page-1" stroke="none" stroke-width="1" fill="none" fill-rule="evenodd">
        <g id="verge" transform="translate(-50.000000, -40.000000)">
            <g id="Group-2" transform="translate(50.000000, 40.000000)">
                <path d="M62.2944,30.6048 L49.896,0.624 L52.92,0.624 L62.424,24.2544 L71.9712,0.624 L74.8656,0.624 L62.4672,30.6048 L62.2944,30.6048 Z M87.6599998,30 L87.6599998,0.624 L105.372,0.624 L105.372,3.1296 L90.4679998,3.1296 L90.4679998,13.9728 L103.7736,13.9728 L103.7736,16.4352 L90.4679998,16.4352 L90.4679998,27.4944 L105.9768,27.4944 L105.9768,30 L87.6599998,30 Z M122.4864,17.9904 L122.4864,30 L119.6784,30 L119.6784,0.624 L128.448,0.624 C131.529615,0.624 133.934391,1.44479179 135.6624,3.0864 C137.390408,4.72800821 138.2544,6.83038718 138.2544,9.3936 C138.2544,11.4096101 137.700005,13.1375928 136.5912,14.5776 C135.482394,16.0176072 133.92001,17.0111973 131.904,17.5584 L139.6368,30 L136.4832,30 L129.0528,17.9904 L122.4864,17.9904 Z M122.4864,15.528 L128.2752,15.528 C130.608011,15.528 132.364794,14.9880054 133.5456,13.908 C134.726405,12.8279946 135.3168,11.3232096 135.3168,9.3936 C135.3168,7.43519021 134.726405,5.90160554 133.5456,4.7928 C132.364794,3.68399446 130.608011,3.1296 128.2752,3.1296 L122.4864,3.1296 L122.4864,15.528 Z M165.823199,30.3456 C161.474378,30.3456 157.831214,28.9200143 154.893599,26.0688 C151.955985,23.2175857 150.487199,19.6320216 150.487199,15.312 C150.487199,11.0207785 151.927185,7.44241433 154.807199,4.5768 C157.687214,1.71118567 161.215178,0.2784 165.391199,0.2784 C169.999222,0.2784 173.685585,1.80478474 176.450399,4.8576 L174.463199,6.7152 C172.130388,4.12318704 169.077618,2.8272 165.304799,2.8272 C161.906382,2.8272 159.076811,4.01518812 156.815999,6.3912 C154.555188,8.76721188 153.424799,11.7407821 153.424799,15.312 C153.424799,18.8832179 154.591188,21.8567881 156.923999,24.2328 C159.256811,26.6088119 162.223181,27.7968 165.823199,27.7968 C169.538418,27.7968 172.519188,26.8464095 174.765599,24.9456 L174.765599,18.2064 L165.909599,18.2064 L165.909599,15.7008 L177.443999,15.7008 L177.443999,26.2416 C174.362384,28.9776137 170.488823,30.3456 165.823199,30.3456 Z M191.361599,30 L191.361599,0.624 L209.073599,0.624 L209.073599,3.1296 L194.169599,3.1296 L194.169599,13.9728 L207.475199,13.9728 L207.475199,16.4352 L194.169599,16.4352 L194.169599,27.4944 L209.678399,27.4944 L209.678399,30 L191.361599,30 Z" id="VERGE-Copy-2" fill="#303533"></path>
                <g id="Group-2-Copy-2">
                    <g id="Group">
                        <polygon id="V-Copy" fill="#00CBFF" points="12.3984 35.9808 0 6 3.024 6 22.0752 6 24.9696 6 12.5712 35.9808"></polygon>
                        <polygon id="V" fill="#303533" opacity="0.306786381" points="12.3984 29.9808 0 0 3.024 0 22.0752 0 24.9696 0 12.5712 29.9808"></polygon>
                    </g>
                </g>
            </g>
        </g>
    </g>
</svg>

<svg width="210" height="36" xmlns="http://www.w3.org/2000/svg"><g fill="none" fill-rule="evenodd"><path d="M62.294 30.605L49.896.624h3.024l9.504 23.63L71.971.624h2.895l-12.399 29.98h-.173zM87.66 30V.624h17.712V3.13H90.468v10.843h13.306v2.462H90.468v11.06h15.509V30H87.66zm34.826-12.01V30h-2.808V.624h8.77c3.082 0 5.486.82 7.214 2.462 1.728 1.642 2.592 3.744 2.592 6.308 0 2.016-.554 3.744-1.663 5.184s-2.671 2.433-4.687 2.98L139.637 30h-3.154l-7.43-12.01h-6.567zm0-2.462h5.79c2.332 0 4.089-.54 5.27-1.62 1.18-1.08 1.77-2.585 1.77-4.514 0-1.959-.59-3.492-1.77-4.601-1.181-1.109-2.938-1.663-5.27-1.663h-5.79v12.398zm43.337 14.818c-4.349 0-7.992-1.426-10.93-4.277-2.937-2.851-4.406-6.437-4.406-10.757 0-4.291 1.44-7.87 4.32-10.735 2.88-2.866 6.408-4.299 10.584-4.299 4.608 0 8.295 1.527 11.06 4.58l-1.988 1.857c-2.333-2.592-5.385-3.888-9.158-3.888-3.399 0-6.228 1.188-8.489 3.564-2.26 2.376-3.391 5.35-3.391 8.921 0 3.571 1.166 6.545 3.499 8.92 2.333 2.377 5.3 3.565 8.9 3.565 3.714 0 6.695-.95 8.942-2.851v-6.74h-8.856v-2.505h11.534v10.54c-3.082 2.737-6.955 4.105-11.62 4.105zM191.362 30V.624h17.712V3.13H194.17v10.843h13.305v2.462H194.17v11.06h15.508V30h-18.316z" fill="#303533"/><path fill="#00CBFF" d="M12.398 35.98L0 6h24.97L12.57 35.98z"/><path fill="#303533" opacity=".307" d="M12.398 29.98L0 0h24.97L12.57 29.98z"/></g></svg>
